svg/600/sharp/flight_class-fill.svg

<svg xmlns="http://www.w3.org/2000/svg" width="48" height="48" viewBox="0 -960 960 960"><path d="M469.26-447.913v-366.783h262.045v366.783H469.26Zm262.045 202.826h-421.74L185.869-648.652v-166.044h79.218v148.565l103.304 341.26h362.914v79.784Zm-423.74 139.218v-79.218h423.74v79.218h-423.74Z"/></svg>

<svg xmlns="http://www.w3.org/2000/svg" width="48" height="48" viewBox="0 -960 960 960"><path d="M469.26-447.91V-814.7H731.3v366.79H469.26ZM731.3-245.09H309.56L185.87-648.65V-814.7h79.22v148.57l103.3 341.26H731.3v79.78ZM307.56-105.87v-79.22H731.3v79.22H307.56Z"/></svg>
